X: 29524
T: Nipper
R: jig
M: 6/8
K: Gmajor
|:B2 d cBA|G2 B D2 B|G2 B D2 B|A2 c D2 c|
B2 d cBA|G2 B D2 B|A2 B ^cBA|1 d3 =c3:|2 d3 e2f||
|:g2 z e3|ded B3|cdc A2 c|BcB G3|
g2 z e3|ded B3|cdc A2 F|G6:|

